extensions/rtl/assets/sent-svg.svg

<svg width="68" height="68" viewBox="0 0 68 68" fill="none" xmlns="http://www.w3.org/2000/svg">
<path d="M0.5 34C0.5 15.4985 15.4985 0.5 34 0.5C52.5015 0.5 67.5 15.4985 67.5 34C67.5 52.5015 52.5015 67.5 34 67.5C15.4985 67.5 0.5 52.5015 0.5 34Z" stroke="#C6C6C6"/>
<path d="M30.2471 38.5L41.4971 27.25" stroke="#0D0D0D" stroke-width="1.5" stroke-linecap="round" stroke-linejoin="round"/>
<path d="M28.0094 27.5183L38.9904 22.3282C43.5531 20.1717 45.8345 19.0934 47.2896 20.1751C48.7448 21.2568 48.329 23.722 47.4975 28.6523L46.0652 37.1452C45.5216 40.369 45.2496 41.9807 44.0483 42.6836C42.8468 43.3865 41.286 42.8467 38.1647 41.767L28.6161 38.4643C22.7787 36.4451 19.86 35.4356 19.7502 33.4547C19.6404 31.4738 22.4301 30.1554 28.0094 27.5183Z" stroke="#0D0D0D" stroke-width="1.5" stroke-linecap="round" stroke-linejoin="round"/>
<path d="M30.2471 39.25V42.5911C30.2471 46.1515 30.2471 47.9317 31.3124 48.2157C32.3777 48.4995 33.4995 47.0183 35.7432 44.0558L36.9971 42.25" stroke="#0D0D0D" stroke-width="1.5" stroke-linecap="round" stroke-linejoin="round"/>
</svg>

<svg xmlns="http://www.w3.org/2000/svg" width="68" height="68" fill="none"><path stroke="#C6C6C6" d="M.5 34C.5 15.499 15.499.5 34 .5 52.502.5 67.5 15.499 67.5 34c0 18.502-14.998 33.5-33.5 33.5C15.499 67.5.5 52.502.5 34Z"/><path stroke="#0D0D0D" stroke-linecap="round" stroke-linejoin="round" stroke-width="1.5" d="m30.247 38.5 11.25-11.25M28.01 27.518l10.98-5.19c4.563-2.156 6.844-3.235 8.3-2.153 1.455 1.082 1.039 3.547.208 8.477l-1.433 8.493c-.543 3.224-.815 4.836-2.017 5.539s-2.762.163-5.883-.917l-9.549-3.303c-5.837-2.019-8.756-3.028-8.866-5.01-.11-1.98 2.68-3.299 8.26-5.936M30.247 39.25v3.341c0 3.56 0 5.34 1.065 5.625 1.066.283 2.187-1.198 4.431-4.16l1.254-1.806"/></svg>
